priv/static/svgs/icons_new/media-music.svg

<svg width="32" height="32" viewBox="0 0 32 32" fill="none" xmlns="http://www.w3.org/2000/svg">
<path d="M11.8462 22.2115C11.8462 22.4877 12.07 22.7115 12.3462 22.7115C12.6223 22.7115 12.8462 22.4877 12.8462 22.2115H11.8462ZM12.3462 10.1538L12.2123 9.67209C11.9959 9.7322 11.8462 9.92924 11.8462 10.1538H12.3462ZM25.5 6.5H26C26 6.34375 25.927 6.19649 25.8026 6.10194C25.6782 6.00739 25.5167 5.97642 25.3662 6.01824L25.5 6.5ZM25 19.6538C25 19.93 25.2239 20.1538 25.5 20.1538C25.7761 20.1538 26 19.93 26 19.6538H25ZM11.8462 22.5769C11.8462 23.9151 10.7613 25 9.42308 25V26C11.3136 26 12.8462 24.4674 12.8462 22.5769H11.8462ZM9.42308 25C8.08485 25 7 23.9151 7 22.5769H6C6 24.4674 7.53256 26 9.42308 26V25ZM7 22.5769C7 21.2387 8.08485 20.1538 9.42308 20.1538V19.1538C7.53256 19.1538 6 20.6864 6 22.5769H7ZM9.42308 20.1538C10.7613 20.1538 11.8462 21.2387 11.8462 22.5769H12.8462C12.8462 20.6864 11.3136 19.1538 9.42308 19.1538V20.1538ZM25 20.3846C25 21.7229 23.9151 22.8077 22.5769 22.8077V23.8077C24.4674 23.8077 26 22.2751 26 20.3846H25ZM22.5769 22.8077C21.2387 22.8077 20.1538 21.7229 20.1538 20.3846H19.1538C19.1538 22.2751 20.6864 23.8077 22.5769 23.8077V22.8077ZM20.1538 20.3846C20.1538 19.0464 21.2387 17.9615 22.5769 17.9615V16.9615C20.6864 16.9615 19.1538 18.4941 19.1538 20.3846H20.1538ZM22.5769 17.9615C23.9151 17.9615 25 19.0464 25 20.3846H26C26 18.4941 24.4674 16.9615 22.5769 16.9615V17.9615ZM12.8462 22.2115V10.1538H11.8462V22.2115H12.8462ZM12.48 10.6356L25.6338 6.98176L25.3662 6.01824L12.2123 9.67209L12.48 10.6356ZM25 6.5V19.6538H26V6.5H25Z" fill="black"/>
</svg>

<svg width="32" height="32" viewBox="0 0 32 32" fill="none" xmlns="http://www.w3.org/2000/svg">
  <symbol id="item" viewBox="0 0 32 32"  fill="none">
    <path d="M11.846 22.212a.5.5 0 1 0 1 0h-1Zm.5-12.058-.134-.482a.5.5 0 0 0-.366.482h.5ZM25.5 6.5h.5a.5.5 0 0 0-.634-.482l.134.482ZM25 19.654a.5.5 0 1 0 1 0h-1Zm-13.154 2.923A2.423 2.423 0 0 1 9.423 25v1a3.423 3.423 0 0 0 3.423-3.423h-1ZM9.423 25A2.423 2.423 0 0 1 7 22.577H6A3.423 3.423 0 0 0 9.423 26v-1ZM7 22.577a2.423 2.423 0 0 1 2.423-2.423v-1A3.423 3.423 0 0 0 6 22.577h1Zm2.423-2.423a2.423 2.423 0 0 1 2.423 2.423h1a3.423 3.423 0 0 0-3.423-3.423v1Zm15.577.23a2.423 2.423 0 0 1-2.423 2.424v1A3.423 3.423 0 0 0 26 20.385h-1Zm-2.423 2.424a2.423 2.423 0 0 1-2.423-2.423h-1a3.423 3.423 0 0 0 3.423 3.423v-1Zm-2.423-2.423a2.423 2.423 0 0 1 2.423-2.424v-1a3.423 3.423 0 0 0-3.423 3.424h1Zm2.423-2.424A2.423 2.423 0 0 1 25 20.386h1a3.423 3.423 0 0 0-3.423-3.424v1Zm-9.73 4.25V10.155h-1v12.058h1Zm-.367-11.575 13.154-3.654-.268-.964-13.154 3.654.268.964ZM25 6.5v13.154h1V6.5h-1Z" fill="currentColor"/>
  </symbol>
</svg>
